src/images/phone.svg

<svg enable-background="new 0 0 16 16" height="28" viewBox="0 0 16 16" width="26" xmlns="http://www.w3.org/2000/svg"><g clip-rule="evenodd" fill-rule="evenodd"><path d="m5.2 7.3-2.9 4v2.7h11.4v-2.6l-2.8-4h-5.7zm2.7 5.1c-1.2 0-2.1-1-2-2.1 0-1.2 1-2.1 2.1-2 1.2 0 2.1 1 2 2.1 0 1.2-1 2.1-2.1 2z"/><path d="m14.1 3.5c-.7-.4-2.3-1.4-6.1-1.4-3.3 0-6 1.3-6.2 1.4-1.2.4-1.9 2.1-1.5 3.2.3 1.1 1.3.8 2.5.5 1.2-.2 2.2-.4 1.9-1.5-.2-.6-.7-1.1-1.2-1.4 1-.4 2.5-.7 4.6-.7 2 0 3.5.3 4.5.7-.6.3-1.1.7-1.2 1.3-.4 1.2.6 1.4 1.8 1.6 1.2.3 2.2.6 2.5-.5.4-1.1-.5-2.6-1.6-3.2z"/></g></svg>

<?xml version="1.0" encoding="utf-8"?>
<!-- Generator: Adobe Illustrator 18.1.1, SVG Export Plug-In . SVG Version: 6.00 Build 0)  -->
<svg version="1.0" id="Layer_1" xmlns="http://www.w3.org/2000/svg" xmlns:xlink="http://www.w3.org/1999/xlink" x="0px" y="0px" width="26px" height="28px" viewBox="0 0 16 16" enable-background="new 0 0 16 16" xml:space="preserve">
  <g id="colourise">
	  <path fill-rule="evenodd" clip-rule="evenodd" d="M5.2,7.3l-2.9,4V14h11.4v-2.6l-2.8-4H5.2z M7.9,12.4c-1.2,0-2.1-1-2-2.1 c0-1.2,1-2.1,2.1-2c1.2,0,2.1,1,2,2.1C10,11.6,9,12.5,7.9,12.4z"/>
    <path fill-rule="evenodd" clip-rule="evenodd" d="M14.1,3.5C13.4,3.1,11.8,2.1,8,2.1c-3.3,0-6,1.3-6.2,1.4C0.6,3.9-0.1,5.6,0.3,6.7 c0.3,1.1,1.3,0.8,2.5,0.5C4,7,5,6.8,4.7,5.7C4.5,5.1,4,4.6,3.5,4.3C4.5,3.9,6,3.6,8.1,3.6c2,0,3.5,0.3,4.5,0.7 c-0.6,0.3-1.1,0.7-1.2,1.3C11,6.8,12,7,13.2,7.2c1.2,0.3,2.2,0.6,2.5-0.5C16.1,5.6,15.2,4.1,14.1,3.5z"/>
  </g>
</svg>
